X:134
T:Vals efter Vilhelm Hedlund
R:Vals
Z:Erik Ronström, efter Aron Hejdström
O:Enviken
S:efter Vilhelm Hedlund
M:3/4
L:1/8
K:Dm
A,2 DD DD|D2 ^C2 D2|EF E2 D2|E3 A, A,^C|E2 EE EE|E2 D2 E2|F2 E2 D2|
A4 G2|F2 E2 D2|E2 D2 =C2|E3 F E2|1 D6:|2 D4 A2|:A2 d2 dc|de dc A2|
B2 A2 G2|A4 F2|F2 FE FG|A2 G2 E2|F2 E2 D2|E4 A,^C|DD ^CD E2|
F2 G2 A2|c2 A2 G2|A4 E2|F2 FE D2|E2 ED C2|EF D2 C2|1 D4 A2:|2 D6|]
(:musicend:)

(:music:)
